X: 20211
Q: "Mod.o"
M: 6/8
L: 1/8
K: C
{d}c2B c2d | e2{g}f e2d | {d}c2B c2d | {cd}e3 E3 |\
c2d e2a | {a}g2e d2e | c2A AGE | A3- A2B |
c2c c2d | e2e e2d | c2c c2d | {cd}e3 E2B |\
c2d e2a | {a}g2e d2e | {B}c2A AGE | A3- A2 |]
{B}Tc2A AGE | {B}Tc2A AGE | {B}Tc2A AGE | G3- G2B |\
c2d e2a | {a}g2e d2e | Tc2A AG.E | A3- A2B |
{B}c2A (AG).E | {B}c2A (AG).E | (ed).c (dc).B | (cB).A (GF).E |\


